!!!COM: Music21
!!!OTL: jig_Kathleen-Katz
!!!OMV: jig_Kathleen-Katz
**kern
*clefG2
*k[f#c#]
*b:
*M6/8
=1
8bL
8a
8f#J
8f#L
8e
8dJ
=
8eL
8f#
8eJ
8AL
8B
8c#J
=
8dL
8c#
8dJ
8eL
8d
8eJ
=
8f#L
8b
8bJ
8bL
8cc#
8ddJ
=
8bL
8a
8f#J
8f#L
8e
8dJ
=
8eL
8f#
8eJ
8AL
8B
8c#J
!!linebreak:original
=
8dL
8c#
8dJ
8eL
8d
8eJ
=
8f#L
8d
8BJ
4B
8a
=||
*M6/8
8bL
8a
8f#J
8f#L
8e
8dJ
=
8eL
8f#
8eJ
8AL
8B
8c#J
=
8dL
8c#
8dJ
8eL
8d
8eJ
=
8f#L
8b
8bJ
8bL
8cc#
8ddJ
!!linebreak:original
=
8bL
8a
8f#J
8f#L
8e
8dJ
=
8eL
8f#
8eJ
8AL
8B
8c#J
=
8dL
8c#
8dJ
8eL
8d
8eJ
=
8f#L
8d
8BJ
4B
8a
=||
8bL
8f#
8bJ
8bL
8cc#
8ddJ
=
8cc#L
8ee
8cc#J
8aL
8b
8cc#J
!!linebreak:original
=
8ddL
8cc#
8ddJ
8eeL
8dd
8eeJ
=
8ff#L
8dd
8bJ
8bL
8a
8f#J
=
8bL
8f#
8bJ
8bL
8cc#
8ddJ
=
8cc#L
8ee
8cc#J
8aL
8b
8cc#J
=
8ddL
8cc#
8bJ
8aL
8f#
8eJ
=
8f#L
8b
8bJ
4b
8a
!!linebreak:original
=
8bL
8f#
8bJ
8bL
8cc#
8ddJ
=
8cc#L
8ee
8cc#J
8aL
8b
8cc#J
=
8ddL
8cc#
8ddJ
8eeL
8dd
8eeJ
=
8ff#L
8bb
8bbJ
8bbL
8ccc#
8dddJ
=
8bbL
8aa
8ff#J
8ff#L
8ee
8ddJ
=
8eeL
8ff#
8eeJ
8aL
8b
8cc#J
!!linebreak:original
=
8ddL
8cc#
8bJ
8aL
8f#
8eJ
=
8f#L
8b
8bJ
4b
8a
=||
*-
